svgs/light/prescription-bottle-pill.svg

<svg xmlns="http://www.w3.org/2000/svg" viewBox="0 0 576 512"><!--! Font Awesome Pro 6.6.0 by @fontawesome - https://fontawesome.com License - https://fontawesome.com/license (Commercial License) Copyright 2024 Fonticons, Inc. --><path d="M336 32c8.8 0 16 7.2 16 16l0 32c0 8.8-7.2 16-16 16L48 96c-8.8 0-16-7.2-16-16l0-32c0-8.8 7.2-16 16-16l288 0zM48 0C21.5 0 0 21.5 0 48L0 80c0 26.5 21.5 48 48 48l288 0c26.5 0 48-21.5 48-48l0-32c0-26.5-21.5-48-48-48L48 0zM32 160l0 288c0 35.3 28.7 64 64 64l192 0c11.6 0 22.4-3.1 31.8-8.4c-8.9-7.3-17-15.5-24.3-24.5c-2.4 .6-4.9 .9-7.5 .9L96 480c-17.7 0-32-14.3-32-32l0-32 80 0c8.8 0 16-7.2 16-16s-7.2-16-16-16l-80 0 0-64 80 0c8.8 0 16-7.2 16-16s-7.2-16-16-16l-80 0 0-64 80 0c8.8 0 16-7.2 16-16s-7.2-16-16-16l-80 0 0-32-32 0zm320 0l-32 0 0 72.2c9.8-8.1 20.6-15.2 32-21l0-51.2zm80 96a112 112 0 1 1 0 224 112 112 0 1 1 0-224zm0 256a144 144 0 1 0 0-288 144 144 0 1 0 0 288zm36.7-84.7c6.2 6.2 16.4 6.2 22.6 0s6.2-16.4 0-22.6l-96-96c-6.2-6.2-16.4-6.2-22.6 0s-6.2 16.4 0 22.6l96 96z"/></svg>

<svg xmlns="http://www.w3.org/2000/svg" viewBox="0 0 576 512"><!--! Font Awesome Pro 6.4.0 by @fontawesome - https://fontawesome.com License - https://fontawesome.com/license (Commercial License) Copyright 2023 Fonticons, Inc. --><path d="M336 32c8.8 0 16 7.2 16 16V80c0 8.8-7.2 16-16 16H48c-8.8 0-16-7.2-16-16V48c0-8.8 7.2-16 16-16H336zM48 0C21.5 0 0 21.5 0 48V80c0 26.5 21.5 48 48 48H336c26.5 0 48-21.5 48-48V48c0-26.5-21.5-48-48-48H48zM32 160V448c0 35.3 28.7 64 64 64H288c11.6 0 22.4-3.1 31.8-8.4c-8.9-7.3-17-15.5-24.3-24.5c-2.4 .6-4.9 .9-7.5 .9H96c-17.7 0-32-14.3-32-32V416h80c8.8 0 16-7.2 16-16s-7.2-16-16-16H64V320h80c8.8 0 16-7.2 16-16s-7.2-16-16-16H64V224h80c8.8 0 16-7.2 16-16s-7.2-16-16-16H64V160H32zm320 0H320v72.2c9.8-8.1 20.6-15.2 32-21V160zm80 96a112 112 0 1 1 0 224 112 112 0 1 1 0-224zm0 256a144 144 0 1 0 0-288 144 144 0 1 0 0 288zm36.7-84.7c6.2 6.2 16.4 6.2 22.6 0s6.2-16.4 0-22.6l-96-96c-6.2-6.2-16.4-6.2-22.6 0s-6.2 16.4 0 22.6l96 96z"/></svg>
